!!!OTL: VETTER MICHEL WOHNT
!!!ARE: Europa, Mitteleuropa, Deutschland, Uckermark
!!!SCT: E1748
!!!YEM: Copyright 1995, estate of Helmut Schaffrath.
**kern
*ICvox
*Ivox
*M2/4
*k[f#c#]
*D:
{16a
16a
=1
8dd
16cc#
16b
8a
16a
16a
=2
16b
16b
16b
16b
8a}
{16a
16a
=3
16b
16b
16b
16b
8a}
{8a
=4
8b
8b
8cc#
8cc#
=5
4dd
8r}
{8a
=6
16f#
16a
16a
16a
16b
16a
8a
=7
16f#
16a
16a
16a
16b
16a
8a}
=8
{16dd
16cc#
16dd
16ee
4ff#
=9
16a
16dd
16f#
16a
8d}
==
!!!AGN: Scherz -, Spiel - Lied, Musikantenspiel
!!!ONB: ESAC (Essen Associative Code) Database: ERK3
!!!AMT: simple duple
!!!AIN: vox
!!!EED: Helmut Schaffrath
!!!EEV: 1.0
*-
